X:1
T:Title
%%score { ( 1 3 ) | ( 2 4 ) }
L:1/8
M:4/4
K:D
V:1 treble nm="Grand Piano"
V:3 treble 
V:2 bass 
V:4 bass 
V:1
 z4 z2[Q:1/4=100] D>E | F>E F>[EG] [FA]2 [FA]>[FA] | [GB]>[Bd] [Ac]>[GB] [FA]2 D>E | %3
 F>[EG] [FA]>[GB] [FA]2 FD |[M:3/4] [DF]4 [CE]2 |[M:1/4] D>E |[M:4/4] F>E F>[EG] [FA]2 [FA]>[FA] | %7
 [DGB]>[DBd] [DAc]>[DGB] [DFA]2[K:bass] [F,D]>[G,DE] | %8
 [A,DF]>[A,EG] [DFA]>[DGB] [DFA]2 [A,DF][K:bass][F,D] |[M:7/8] [CE]- [CE]3 z z2 | %10
[M:1/4][K:treble] [DFA][DFA] |[M:3/4] [DFA]3- [DFA]/F/ [DFA]2 |[M:1/4] [DAd][DAc] | %13
[M:9/8] B3- B/A/ d2- dD>E |[M:4/4] F>[EG] [FA]>[GB] [FA]2 [A,DF][K:bass][F,D] | %15
[M:7/8] [CE]- [CE]3 z z2 |] %16
V:2
 z4 z2 [D,F,]>[D,G,D] | [D,A,D]>[D,A,C] [D,A,D]>[D,A,] [D,D]2 [D,D]>[D,D] | %2
 [G,D]>[G,D] [G,D]>[G,D] [D,D]2 [D,F,]>[D,G,D] | [D,A,D]>[D,A,] [D,D]>[D,D] [D,D]2 [D,A,D][D,F,] | %4
[M:3/4] [A,,A,]4 [A,,A,]2 |[M:1/4] [D,F,]>[D,G,D] | %6
[M:4/4] [D,A,D]>[D,A,C] [D,A,D]>[D,A,] [D,D]2 [D,D]>[D,D] | G,>G, G,>G, D,2 D,>D, | %8
 D,>D, D,>D, D,2 D,D, |[M:7/8] z2 G,2 D,3 |[M:1/4] D,D, |[M:3/4] z2 z z/ D/ D,2 |[M:1/4] F,F, | %13
[M:9/8] G,3- G,[K:treble] [G,B,G]2- [G,B,G][K:bass][F,A,]>[E,A,C] | %14
[M:4/4] [D,A,D]>[D,A,] [D,D]>[D,D] [D,D]2 D,D, |[M:7/8] z2 G,2 D,3 |] %16
V:3
 x8 | x8 | x8 | x8 |[M:3/4] x6 |[M:1/4] x2 |[M:4/4] x8 | x6[K:bass] x2 | x7[K:bass] x | %9
[M:7/8] A,2 z2 [F,D]3 |[M:1/4][K:treble] x2 |[M:3/4] x6 |[M:1/4] x2 |[M:9/8] .[DG]6 z3 | %14
[M:4/4] x7[K:bass] x |[M:7/8] A,2 z2 [F,D]3 |] %16
V:4
 x8 | x8 | x8 | x8 |[M:3/4] x6 |[M:1/4] x2 |[M:4/4] x8 | x8 | x8 |[M:7/8] A,,- A,,3 z z2 | %10
[M:1/4] x2 |[M:3/4] D,4 z2 |[M:1/4] x2 |[M:9/8] x4[K:treble] x3[K:bass] x2 |[M:4/4] x8 | %15
[M:7/8] A,,- A,,3 z z2 |] %16

